X: 50
T: I am sleeping
%R: waltz
B: "The Hibernian Muse" p.30 #2 - p.31 #1
F: http://imslp.org/wiki/The_Hibernian_Muse_%28Various%29
Z: 2015 John Chambers <jc:trillian.mit.edu>
P: No. L.
M: 3/4
L: 1/8
K: G
% - - - - - - - - - - - - - - - - - - - - - - - - - - - - -
V: 1
D2 |\
E2 G2 (G/A/G) | G4 B2 | TA3 GAB | E4 D2 |\
E2 G2 G2 | Bc d2 G2 | TA3 GAB | G4 AB |\
c2 (dc)(BA) | B2 (cB)(AG) |
A3 GAB | E4 D2 |\
EF G2 G2 | Bcd2 G2 | A3 GAB | G4 |]| de |\
f4 fg | (e3 d) B2 | d2 e2 ga | (g3 e d2) |\
Tf4 fg |
e2 d2 B2 | (d>ed)BAB | (G3 E) D2 |\
f3 efg | efed (e/d/B) | (d3 B A2) | (G>AGE) D2 |\
E2 G2 G2 | Bc d2 e2 | B3 A (B/A/G) | G4 |]
% - - - - - - - - - - - - - - - - - - - - - - - - - - - - -
V: 2 clef=bass middle=d
z2 |\
z2 B2 d2 | g2 G2 G2 | c2 d4 | g2 G4 |\
z2 B2 d2 | ga b2 B2 | c2 d2 D2 | G4 z2 |\
f2 d2 f2 | g2 G2 B2 |
c2 d4 | g2 G4 |\
z2 B2 d2 | ga b2 B2 | c2 d2 D2 | G4 |]| z2 |\
d2 D2 d2 | G2 g2 G2 | B2 c2 d2 | G2 g2 G2 |\
d2 D2 d2 |
G2 g2 G2 | B>c d2 D2 | G2 g2 G2 |\
d2 D2 z2 | c2 z2 g2 | f2 g2 d2 | B2 c2 G2 |\
c2 c2 e2 | GA B2 c2 | d2 D4 | G4 |]

%%sep 2 1 500
%%sep 1 1 500

